X:1
T:C minor Abraham Wood, 1800
T:Isaac Watts, 1707 (Hymn 58, Book 2)     86. 86. (C. M.)
T:Brevity
T:Transcribed from The Evangelical Harmony, 1800.
%%score [ 1 2 3 4 ]
L:1/8
Q:1/4=100
M:4/4
K:Eb
V:1 treble nm="Tr." snm="Tr."
V:2 treble nm="C." snm="C."
V:3 treble-8 nm="T." snm="T."
V:4 bass nm="B." snm="B."
V:1
 c8 | c4 c4 | G4 G4 | A4 B4 | G6 c2 | d6 d2 | c4 B4 | B6 B2 | B4 c4 | B4 B4 | c4 c4 | G6 A2 | %12
w: 1.~Time,|what an|emp- ty|va- por|'tis! And|days, how|swift they|are! Swift|as an|In- dian|ar- row|flies, Or|
w: 2.~The|pre- sent|mo- ments|just ap-|pear, Then|slide a-|way in|haste, That|we can|ne- ver|say they're|here, But|
 B4 B4 | G4 F4 | B6 B2 | G4 G4 | B4 d4 | c8 |] %18
w: like a|shoo- ting|star, Or|like a|shoo- ting|star.|
w: on- ly|say they're|past, But|on- ly|say they're|past.|
V:2
 E8 | E4 E4 | D4 G4 | (F2 E2) D4 | E6 E2 | G6 G2 | F4 F4 | G6 G2 | G4 G4 | G4 G4 | E4 (F2 E2) | %11
w: 3.~Our|life is|ev- er|on * the|wing, And|death is|ev- er|nigh; The|mo- ment|when our|lives be- *|
w: 4.~'Tis|sove- reign|mer- cy|finds * us|food, And|we are|clothed with|love; While|grace stands|poin- ting|out the *|
 D6 F2 | G4 G4 | C4 (F2 E2) | D6 D2 | E4 G4 | G4 G4 | G8 |] %18
w: gin We|all be-|gin to *|die, We|all be-|gin to|die.|
w: road That|leads our|souls a- *|bove, That|leads our|souls a-|bove.|
V:3
 G8 | (G c3) c4 | (d B3) B4 | (c2 e2) (e2 B2) | c6 e2 | B6 B2 | c4 d4 | e6 e2 | (g e3) e4 | %9
w: 5.~His|good- * ness|runs * an|end- * less *|round; All|glo- ry|to the|Lord! His|mer- * cy|
w: 6.~Thus|we * be-|gin * the|las- * ting *|song; And|when we|close our|eyes, Let|the * next|
 (f d3) d4 | (c2 e2) (d2 c2) | B6 A2 | G4 (G2 F2) | E4 F4 | G6 d2 | c4 (B2 A2) | G4 B4 | c8 |] %18
w: ne- * ver|knows * a *|bound, And|be his *|name a-|dored! And|be his *|name a-|dored!|
w: age * thy|praise * pro- *|long, Till|time and *|na- ture|dies, Till|time and *|na- ture|dies.|
V:4
 C,8 | C,4 C,4 | G,4 G,4 | (A,2 F,2) G,4 | C,6 C,2 | G,6 G,2 | A,4 B,4 | E,6 E,2 | E,4 C,4 | %9
 G,4 G,4 | A,4 F,4 | G,6 F,2 | E,4 (E,2 D,2) | C,4 D,4 | G,,6 G,,2 | C,4 (E,2 F,2) | %16
"^_________________________________________________\nEdited by B. C. Johnston, 2016\n  1. These words substituted for the original words. \n  2. Measure 7, \nCounter\n: both notes marked as F#, both changed to F.\n  3. Measure 11, Bass: second note changed from F# to F (as in Counter)." G,4 G,,4 | %17
 C,8 |] %18

